X: 247
T: A Lovely Madness
R: reel
M: 4/4
K: Aminor
A,E (3EEE DEFD|EDCE DCB,C|A,E (3EEE DEFD|EAAG (3AAA AB|
(3ccc ed cBAG|AE (3EEE FD (3DDD|EDEF EDCE|DCB,C A,2 B,D:|
C2 EC GCEC|D2 FD ADFD|E2 GE BEGE|F2 AF cFAF|(3eee ed cBAG|
AE (3EEE FD (3DDD|EDEF EDCE|1 DCB,C A,2 BD:|2 DCB,C A,2 A,2||

